X:23
T:Money Musk. CAM2.[24]
B:Anon MS#2, early 19thC, Northumbria, Cocks Coll.
Z:Village Music Project 2016 Steve Mansfield
M:C|
L:1/8
Q:2/4=60
K:G
e | d>GB>G d>Gc>e | d>GB>G AB/A/ c>e | d>GB>G Bc/d/ d>g | e>cA>c B>GG :|
e/f/ | g>dB>d d>gB>g | g>dc>g B>gA>g | g>dB>g d>gB>g | e>cA>c BGGf |
g>dB>g d>gB>g | g>dc>g B>gA>g | g>dB>g d>gB>g | ecAd BGG :|

